X:2019
T:Boys of the Lough
M:C
L:1/8
K:D Major
dB|ADFD FAAB|defd efdB|A2FA BdAF|EDEF E2dB|!
ADFD FAAB|defd efdB|A2FA BdAF|EDEF D2:|!
de|faag fgfe|defd efdB|A2FA BdAF|EDEF E2de|!
faag fgfe|defd efdB|A2FA BdAF|EDEF D2:|!


